packages/dnb-eufemia/assets/icons/heart_rate_medium.svg

<svg width="24" height="24" viewBox="0 0 24 24" fill="none" xmlns="http://www.w3.org/2000/svg">
<path d="M17.033 16.5829L12.541 21.2689C12.4711 21.3419 12.3871 21.4 12.2941 21.4397C12.2012 21.4794 12.1011 21.4999 12 21.4999C11.8989 21.4999 11.7989 21.4794 11.7059 21.4397C11.6129 21.4 11.5289 21.3419 11.459 21.2689L6.96601 16.5819M1.47101 10.5869C1.02079 9.7801 0.774351 8.87562 0.75309 7.95198C0.731829 7.02834 0.936391 6.11348 1.34901 5.28686C1.75106 4.48298 2.33838 3.78613 3.06255 3.25374C3.78673 2.72135 4.62705 2.36866 5.51426 2.22471C6.40148 2.08076 7.3102 2.14969 8.16556 2.42581C9.02091 2.70192 9.79841 3.17733 10.434 3.81286L12 5.37386L13.566 3.80786C14.2016 3.17233 14.9791 2.69692 15.8345 2.42081C16.6898 2.14469 17.5985 2.07576 18.4858 2.21971C19.373 2.36366 20.2133 2.71635 20.9375 3.24874C21.6616 3.78113 22.249 4.47798 22.651 5.28186C23.0637 6.10836 23.2685 7.02304 23.2478 7.94659C23.227 8.87015 22.9813 9.77471 22.532 10.5819M2.75001 13.5829H7.26801C7.33769 13.5829 7.40602 13.5635 7.46535 13.527C7.52468 13.4904 7.57269 13.4381 7.60401 13.3759L9.32701 9.92886C9.36014 9.86028 9.41333 9.80338 9.47952 9.76569C9.54571 9.72801 9.62178 9.71131 9.69767 9.71782C9.77356 9.72432 9.84568 9.75372 9.90449 9.80212C9.9633 9.85052 10.006 9.91564 10.027 9.98886L11.708 15.5889C11.7313 15.661 11.7759 15.7244 11.836 15.7708C11.896 15.8171 11.9686 15.8442 12.0443 15.8485C12.12 15.8529 12.1953 15.8342 12.2602 15.795C12.3251 15.7558 12.3766 15.6979 12.408 15.6289L13.978 11.9649C14.0048 11.9029 14.0477 11.8493 14.1023 11.8097C14.1569 11.77 14.2212 11.7458 14.2884 11.7396C14.3556 11.7333 14.4233 11.7453 14.4842 11.7742C14.5452 11.8031 14.5973 11.8479 14.635 11.9039L15.751 13.5779C15.751 13.5779 18.3221 13.5779 21.251 13.5779" stroke="black" stroke-width="1.5" stroke-linecap="round" stroke-linejoin="round"/>
</svg>

<svg width="24" height="24" viewBox="0 0 24 24" fill="none" xmlns="http://www.w3.org/2000/svg"><path d="m17.033 16.583-4.492 4.686a.749.749 0 0 1-1.082 0l-4.493-4.687m-5.495-5.995a5.675 5.675 0 0 1 1.592-7.333 5.673 5.673 0 0 1 7.371.559L12 5.373l1.566-1.565a5.673 5.673 0 0 1 8.966 6.774m-19.782 3h4.518a.377.377 0 0 0 .336-.206l1.723-3.447a.376.376 0 0 1 .7.06l1.681 5.6a.376.376 0 0 0 .7.04l1.57-3.664a.376.376 0 0 1 .657-.061l1.116 1.674h5.5" stroke="#000" stroke-width="1.5" stroke-linecap="round" stroke-linejoin="round"/></svg>
